X: 110
T:V Salm. JMP.110
M:4/4
L:1/4
Q:100
S:John Miller MS. Perth, 1799.(for the fife)
R:sacred
O:Scotland
A:Perth
N:Words:  Lord hear the voice of my complaint
N:Accept my secret pray'r
N:To the[e] alone .........my God
N:will I for help repair
N:hallelujah x 4
N:1 - marked as triplet, but isn'
H:1799
Z:vmp.C.  Graebe
K:A minor
EA^GA | B "1"(c/d/4e/4) (d/c/) {c/}B ||\
(c/d/)e(d/e/)c | (B/c/d/) c2 z/ ||\
(e/f/) (g/f/) (e/d/)  c |!
 (G/e/) f (d/4c/4 d/) ||\
(c/d/) (e/G/) (A/d/) c | BA2 z ||\
A^GAE | cBcc | edcB | EAGA |]
